X: 21834
T: Kinyon's
R: reel
M: 4/4
K: Gdorian
d2fd cdAF|G2BG F2AF|GFDC DG G/G/G|BG G/G/G BGAc|
dcAc defd|cdAF G2BG|F2AF DFGA|BAGB cAFA:|
|:dg g/g/g a3a|bg g/g/g f3f|dcAd fdcf|gece d3c|
dg g/g/g dB B/B/B|cAGA cdAF|G2BG F2AA|cAFA G4:|

